X:1
T:Tu pensi col
T:Tu pensi col
T:Giovanni Maria Artusi
T:Source : Canzonette a 4 voci---Libro primo---Venetia---G.Vincenti---1598. Editor : André Vierendeels (17/02/14).
T:Notes : Original clefs : G2, G2, C2, C3 Editorial accidentals above the staff
C:Giovanni Mario Artusi
%%score [ 1 2 3 4 ]
L:1/8
Q:1/4=90
M:4/4
K:F
V:1 treble nm="Canto1" snm="C1"
V:2 treble nm="Canto 2" snm="C 2"
V:3 treble nm="Alto" snm="A"
V:4 treble-8 nm="Tenor" snm="T"
V:1
 z2 d2 d3 d | d2 e2 f4 | e2 d2 e4 | f8 | z4 g4- | g2 g2 f4 | _e4 c4 | B2 AG A4 | B2 B2 A3 A | %9
w: Tu pen- si|col fug- gi-||re,|dar-|* mi no-|vo mar-|ti- * * *|re, tu pen- si|
 =B2 c2 A3 B | ^c2 d4 c2 | d4 d4- | d2 d2 _e4 | d6 c2 | B4 c4 | d8 | d8 | f2 ed c4 | z4 _e2 dc | %19
w: col fug- gi- *||re dar-|* mi no-|vo _|_ mar-|ti-|re,|fug- gi- mi pur|fug- gi- mi|
 d4 z2 d2 | d3 d _e2 e2 | d4 d4 | d4 c2 B2 | A2 A2 d3 d | _e6 e2 | d8 | d8 | d2 cB A4 | c2 BA G4 | %29
w: pur che|col fug- gir tuo|tan- to,|non hai fug-|gen- do di mia|mor- te|van-|to,|fug- gi- mi pur,|fug- gi- mi pur,|
 B2 AG A2 A2 | =B3 B c2 c2 | A4 A4 | B4 A2 G2 | ^F2 F2 =B3 B | c6 B2 | A2 B2 A4 | =B8 |] %37
w: fug- gi- mi pur che|col fug- gir tuo|tan- to,|non hai fug-|gen- do di mia|mor- te|van- * *|to.|
V:2
 z2 B2 A3 A | =B2 c2 A3 B | ^c2 d4 c2 | d4 d4- | d2 d2 _e4 | d6 c2 | B4 c4 | d8 | d2 d2 d3 d | %9
w: Tu pen- si|col fug- gi- *||re, dar-|* mi no-|vo _|_ mar-|ti-|re, tu pen- si|
 d2 e2 f4 | e2 d2 e4 | f8 | z4 g4- | g2 g2 f4 | _e4 c4 | B2 AG A4 | B8 | d2 cB A4 | c2 BA G4 | %19
w: col fug- gi-||re|dar-|* mi no-|vo mar-|ti- * * *|re,|fug- gi- mi pur,|fug- gi- mi pur,|
 B2 AG A2 A2 | B3 B c2 c2 | A4 A4 | B4 A2 G2 | ^F2 F2 =B3 B | c6 B2 | A2 B2 A4 | B8 | f2 ed c4 | %28
w: fug- gi- mi pur che|col fug- gir tuo|tan- to,|non hai fug-|gen- do di mia|mor- te|van- * *|to,|fug- gi- mi pur,|
 z4 _e2 dc | d4 z2 d2 | d3 d _e2 e2 | d4 d4 | d4 c2 B2 | A2 A2 d3 d | _e6 e2 | d8 | d8 |] %37
w: fug- gi- mi|pur che|col fug- gir tuo|tan- to,|non hai fug-|gen- do di mia|mor- te|van-|to.|
V:3
 z2 G2 ^F3 F | G2 C2 DEFG | A2 B2 A4 | D4 B4- | B2 A2 G4 | B4 A4- | A4 G4- | G4 ^F4 | G2 G2 ^F3 F | %9
w: Tu pen- si|col fug- gi- * * *||re, dar-|* mi no-|vo mar-|* ti-||re, tu pen- si|
 G2 C2 DEFG | A2 B2 A4 | D4 B4- | B2 A2 G4 | B4 A4- | A4 G4- | G4 ^F4 | G4 B2 AG | A4 A2 GF | G8 | %19
w: col fug- gi- * * *||re dar-|* mi no-|vo mar-|* ti-||re, fug- gi- mi|pur, fug- gi- mi|pur,|
 G2 FE ^F2 F2 | G3 G G2 G2 | ^F4 F4 | z8 | z4 G2 G2 | G6 G2 | ^F2 G4 F2 | G4 B2 AG | A4 A2 GF | %28
w: fug- gi- mi pur che|col fug- gir tuo|tan- to,||di mia|mor- te|van- * *|to, fug- gi- mi|pur, fug- gi- mi|
 G8 | G2 FE ^F2 F2 | G3 G G2 G2 | ^F4 F4 | z8 | z4 G2 G2 | G6 G2 | ^F2 G4 F2 | G8 |] %37
w: pur,|fug- gi- mi pur che|col fug- gir tuo|tan- to,||di mia|mor- te|van- * *|to.|
V:4
 z8 | z8 | z8 | z4 B4- | B2 B2 c4 | d8 | _e8 | d8 | G4 z4 | z8 | z8 | z4 B4- | B2 B2 c4 | d8 | %14
w: |||dar-|* mi no-|vo|mar-|ti-|re,|||dar-|* mi no-|vo|
 _e8 | d8 | G4 g2 fe | d4 f2 ed | c4 c2 BA | G4 z2 d2 | G3 G c2 c2 | d4 d2 d2 | Bc de f2 g2 | %23
w: mar-|ti-|re, fug- gi- mi|pur, fug- gi- mi|pur, fug- gi- mi|pur che|col fug- gir tuo|tan- to, non|hai _ _ _ _ fug-|
 d2 d2 G3 G | c6 c2 | d8 | G4 g2 fe | d4 f2 ed | c4 c2 BA | G4 z2 d2 | G3 G c2 c2 | d4 d2 d2 | %32
w: gen- do di mia|mor- te|van-|to, fug- gi- mi|pur, fug- gi- mi|pur, fug- gi- mi|pur che|col fug- gir tuo|tan- to, non|
 Bc de f2 g2 | d2 d2 G3 G | c6 c2 | d8 | G8 |] %37
w: hai _ _ _ _ fug-|gen- do di mia|mor- te|van-|to.|

